public/assets/img/vector3.svg

<svg width="120" height="122" viewBox="0 0 120 122" fill="none" xmlns="http://www.w3.org/2000/svg">
<rect x="90" y="119.664" width="60" height="60" rx="24" transform="rotate(-180 90 119.664)" fill="#FF3B30"/>
<path fill-rule="evenodd" clip-rule="evenodd" d="M96.7942 92.6721C93.7545 107.807 80.173 118.684 64.4219 118.597C63.6728 118.6 62.9526 118.312 62.42 117.795C61.8875 117.278 61.5863 116.575 61.5829 115.842V115.842L61.5913 115.594L64.2414 89.6915C64.4168 87.9477 65.9957 86.6711 67.7773 86.8325L94.2961 89.4672C95.0432 89.5468 95.7274 89.9148 96.1972 90.4898C96.667 91.0648 96.8836 91.7993 96.799 92.5305L96.7942 92.6721Z" stroke="#252836" stroke-width="4" stroke-linecap="round" stroke-linejoin="round"/>
<path d="M46.4144 102.592C48.0652 103.037 49.7972 102.235 50.541 100.681C50.7344 100.316 50.8568 99.9173 50.9014 99.506C51.43 94.4156 52.5555 83.2657 53.1868 77.2434C53.2965 76.1585 53.8299 75.1621 54.669 74.4748C55.5081 73.7875 56.5837 73.466 57.6577 73.5814L79.571 75.6898C80.5493 75.7825 81.5224 75.4628 82.2598 74.8066C82.9972 74.1503 83.4334 73.2158 83.4652 72.2242C83.0282 58.806 73.8796 47.2915 61.0018 43.9513C48.124 40.6112 34.6014 46.2456 27.7985 57.7859C25.7719 61.105 24.4345 64.8049 23.8674 68.661C23.6408 69.8426 23.5285 71.0436 23.5323 72.247C23.0864 86.5456 32.615 99.2011 46.3788 102.591" stroke="#252836" stroke-width="4" stroke-linecap="round" stroke-linejoin="round"/>
</svg>

<svg width="120" height="122" fill="none" xmlns="http://www.w3.org/2000/svg"><rect x="90" y="119.664" width="60" height="60" rx="24" transform="rotate(-180 90 119.664)" fill="#FF3B30"/><path clip-rule="evenodd" d="M96.794 92.672c-3.04 15.135-16.621 26.012-32.372 25.925a2.858 2.858 0 0 1-2.002-.802 2.74 2.74 0 0 1-.837-1.953v0l.008-.248 2.65-25.902c.176-1.744 1.755-3.02 3.536-2.86l26.52 2.635c.746.08 1.43.448 1.9 1.023s.687 1.31.602 2.04l-.005.142Z" stroke="#252836" stroke-width="4" stroke-linecap="round" stroke-linejoin="round"/><path d="M46.414 102.592a3.552 3.552 0 0 0 4.127-1.911 3.26 3.26 0 0 0 .36-1.175c.529-5.09 1.654-16.24 2.286-22.263a4.113 4.113 0 0 1 1.482-2.768 4.035 4.035 0 0 1 2.989-.894L79.57 75.69a3.541 3.541 0 0 0 2.689-.883 3.612 3.612 0 0 0 1.205-2.583c-.437-13.418-9.585-24.933-22.463-28.273s-26.4 2.295-33.203 13.835a28.954 28.954 0 0 0-3.932 10.875 18.727 18.727 0 0 0-.335 3.586c-.446 14.299 9.083 26.954 22.847 30.344" stroke="#252836" stroke-width="4" stroke-linecap="round" stroke-linejoin="round"/></svg>
